src/assets/navIcon/skill.svg

<svg width="20" height="18" viewBox="0 0 20 18" fill="none" xmlns="http://www.w3.org/2000/svg">
<path d="M6 18V16H8V14H2C1.45 14 0.979333 13.8043 0.588 13.413C0.196 13.021 0 12.55 0 12V2C0 1.45 0.196 0.979 0.588 0.587C0.979333 0.195667 1.45 0 2 0H18C18.55 0 19.021 0.195667 19.413 0.587C19.8043 0.979 20 1.45 20 2V12C20 12.55 19.8043 13.021 19.413 13.413C19.021 13.8043 18.55 14 18 14H12V16H14V18H6ZM2 12H18V2H2V12Z" fill="#F8F8F8"/>
</svg>

<svg width="20" height="18" fill="none" xmlns="http://www.w3.org/2000/svg"><path d="M6 18v-2h2v-2H2c-.55 0-1.02-.196-1.412-.587A1.927 1.927 0 0 1 0 12V2C0 1.45.196.979.588.587A1.925 1.925 0 0 1 2 0h16c.55 0 1.021.196 1.413.587C19.804.979 20 1.45 20 2v10c0 .55-.196 1.021-.587 1.413A1.928 1.928 0 0 1 18 14h-6v2h2v2H6Zm-4-6h16V2H2v10Z" fill="#F8F8F8"/></svg>
